assets/Gorilla/Flat/gorilla_flat.svg

<svg width="32" height="32" viewBox="0 0 32 32" fill="none" xmlns="http://www.w3.org/2000/svg">
<path d="M11.52 3.85C11.05 2.76 9.95997 2 8.69997 2C7.44997 2 6.35997 2.76 5.88997 3.84C5.72997 4.21 4.15997 7.5 4.15997 8.84C4.15997 11.35 6.18997 13.38 8.69997 13.38C11.21 13.38 13.24 11.35 13.24 8.84C13.24 7.5 11.68 4.22 11.52 3.85Z" fill="#636363"/>
<path d="M7.49519 7.13338C7.66928 6.85732 7.77 6.53037 7.77 6.17989C7.77 5.1913 6.96859 4.38989 5.98 4.38989C4.99141 4.38989 4.19 5.1913 4.19 6.17989C4.19 6.53037 4.29073 6.85732 4.46481 7.13338C3.588 7.65212 3 8.60738 3 9.69997C3 11.3458 4.33419 12.68 5.98 12.68C7.62581 12.68 8.96 11.3458 8.96 9.69997C8.96 8.60738 8.372 7.65212 7.49519 7.13338Z" fill="#9B9B9B"/>
<path d="M23.74 29.9999H28.8C29.35 29.9999 29.8 29.5499 29.79 28.9999V27.8899H25.85C24.69 27.8899 23.74 28.8299 23.74 29.9999Z" fill="#9B9B9B"/>
<path d="M13.72 29.9999H10.94V27.8899H11.61C12.78 27.8899 13.72 28.8299 13.72 29.9999Z" fill="#9B9B9B"/>
<path d="M27.3 11.3199C25.97 10.3299 24.81 10.2799 23.74 10.4799V10.4699C23.735 10.4699 23.73 10.4724 23.725 10.4749C23.72 10.4774 23.715 10.4799 23.71 10.4799C23.6633 10.4866 23.6167 10.5021 23.57 10.5177C23.5467 10.5255 23.5233 10.5333 23.5 10.5399C22.42 10.8499 21.48 10.8799 20.69 10.7499C20.2 10.6899 19.98 10.5999 19.55 10.4199C18.51 9.98992 17.84 9.30992 17.5 8.88992C17.43 8.77992 17.35 8.67992 17.27 8.57992C17.25 8.54992 17.24 8.52992 17.24 8.52992H17.23C15.92 6.85992 13.77 5.86992 11.42 6.20992C10.87 6.28992 10.36 6.48992 9.89999 6.78992C6.54999 8.94992 6.11999 10.7099 6.11999 12.3699H6.10999V24.9099C6.10999 27.7199 8.38999 29.9999 11.2 29.9999H12.33V21.0099L23.74 21.5499V23.9499C23.74 26.9099 25.87 29.3799 28.68 29.8999C29.26 30.0099 29.8 29.5299 29.8 28.9399V16.4899C29.79 14.4699 28.91 12.5199 27.3 11.3199Z" fill="#636363"/>
<path d="M3 9C2.72386 9 2.5 9.22386 2.5 9.5C2.5 9.77614 2.72386 10 3 10H4.73C5.00614 10 5.23 9.77614 5.23 9.5C5.23 9.22386 5.00614 9 4.73 9H3Z" fill="#636363"/>
<path d="M23.74 21.4999C23.74 20.5299 22.97 19.7299 22 19.6799C19.65 19.5599 16.79 19.1099 14.42 17.0199C13.61 16.2999 12.33 16.8399 12.33 17.9299V21.01C13.57 22.9699 15.73 24.2699 18.22 24.2699C20.47 24.2699 22.46 23.1999 23.74 21.5499L23.74 21.4999Z" fill="#9B9B9B"/>
<path d="M5.75125 6.72003C6.07986 6.72003 6.34625 6.45364 6.34625 6.12503C6.34625 5.79642 6.07986 5.53003 5.75125 5.53003C5.42264 5.53003 5.15625 5.79642 5.15625 6.12503C5.15625 6.45364 5.42264 6.72003 5.75125 6.72003Z" fill="#212121"/>
</svg>

<svg xmlns="http://www.w3.org/2000/svg" width="32" height="32" fill="none"><path fill="#636363" d="M11.52 3.85a3.071 3.071 0 0 0-5.63-.01c-.16.37-1.73 3.66-1.73 5 0 2.51 2.03 4.54 4.54 4.54 2.51 0 4.54-2.03 4.54-4.54 0-1.34-1.56-4.62-1.72-4.99Z"/><path fill="#9B9B9B" d="M7.495 7.133a1.79 1.79 0 1 0-3.03 0 2.98 2.98 0 1 0 3.03 0ZM23.74 30h5.06c.55 0 1-.45.99-1v-1.11h-3.94c-1.16 0-2.11.94-2.11 2.11ZM13.72 30h-2.78v-2.11h.67c1.17 0 2.11.94 2.11 2.11Z"/><path fill="#636363" d="M27.3 11.32c-1.33-.99-2.49-1.04-3.56-.84v-.01c-.005 0-.01.002-.015.005-.005.002-.01.005-.015.005a.817.817 0 0 0-.14.038 1.572 1.572 0 0 1-.07.022c-1.08.31-2.02.34-2.81.21-.49-.06-.71-.15-1.14-.33a5.245 5.245 0 0 1-2.05-1.53c-.07-.11-.15-.21-.23-.31a.52.52 0 0 1-.03-.05h-.01a6.211 6.211 0 0 0-5.81-2.32c-.55.08-1.06.28-1.52.58-3.35 2.16-3.78 3.92-3.78 5.58h-.01v12.54c0 2.81 2.28 5.09 5.09 5.09h1.13v-8.99l11.41.54v2.4c0 2.96 2.13 5.43 4.94 5.95.58.11 1.12-.37 1.12-.96V16.49c-.01-2.02-.89-3.97-2.5-5.17ZM3 9a.5.5 0 0 0 0 1h1.73a.5.5 0 0 0 0-1H3Z"/><path fill="#9B9B9B" d="M23.74 21.5c0-.97-.77-1.77-1.74-1.82-2.35-.12-5.21-.57-7.58-2.66-.81-.72-2.09-.18-2.09.91v3.08c1.24 1.96 3.4 3.26 5.89 3.26 2.25 0 4.24-1.07 5.52-2.72v-.05Z"/><path fill="#212121" d="M5.751 6.72a.595.595 0 1 0 0-1.19.595.595 0 0 0 0 1.19Z"/></svg>
